icons/mirror-24.svg

<svg width="24" height="24" viewBox="0 0 24 24" xmlns="http://www.w3.org/2000/svg">
  <path fill-rule="evenodd" clip-rule="evenodd" d="M12 10.75C12.4142 10.75 12.75 11.0858 12.75 11.5V12.5C12.75 12.9142 12.4142 13.25 12 13.25C11.5858 13.25 11.25 12.9142 11.25 12.5V11.5C11.25 11.0858 11.5858 10.75 12 10.75Z"/>
  <path fill-rule="evenodd" clip-rule="evenodd" d="M12 14.75C12.4142 14.75 12.75 15.0858 12.75 15.5V16.5C12.75 16.9142 12.4142 17.25 12 17.25C11.5858 17.25 11.25 16.9142 11.25 16.5V15.5C11.25 15.0858 11.5858 14.75 12 14.75Z"/>
  <path fill-rule="evenodd" clip-rule="evenodd" d="M12 18.75C12.4142 18.75 12.75 19.0858 12.75 19.5V20.5C12.75 20.9142 12.4142 21.25 12 21.25C11.5858 21.25 11.25 20.9142 11.25 20.5V19.5C11.25 19.0858 11.5858 18.75 12 18.75Z"/>
  <path fill-rule="evenodd" clip-rule="evenodd" d="M12 6.75C12.4142 6.75 12.75 7.08579 12.75 7.5V8.5C12.75 8.91421 12.4142 9.25 12 9.25C11.5858 9.25 11.25 8.91421 11.25 8.5V7.5C11.25 7.08579 11.5858 6.75 12 6.75Z"/>
  <path fill-rule="evenodd" clip-rule="evenodd" d="M12 2.75C12.4142 2.75 12.75 3.08579 12.75 3.5V4.5C12.75 4.91421 12.4142 5.25 12 5.25C11.5858 5.25 11.25 4.91421 11.25 4.5V3.5C11.25 3.08579 11.5858 2.75 12 2.75Z"/>
  <path fill-rule="evenodd" clip-rule="evenodd" d="M21.5527 6.06379C21.8246 6.18371 22 6.45284 22 6.75V17.25C22 17.5472 21.8246 17.8163 21.5527 17.9362C21.2808 18.0561 20.9637 18.0042 20.7443 17.8039L14.9943 12.5539C14.8387 12.4118 14.75 12.2107 14.75 12C14.75 11.7893 14.8387 11.5882 14.9943 11.4461L20.7443 6.19614C20.9637 5.99577 21.2808 5.94386 21.5527 6.06379ZM16.6123 12L20.5 15.5496V8.45037L16.6123 12Z"/>
  <path fill-rule="evenodd" clip-rule="evenodd" d="M2.44733 17.9362C2.17544 17.8163 2 17.5472 2 17.25L2 6.75C2 6.45284 2.17544 6.18371 2.44733 6.06379C2.71921 5.94387 3.03626 5.99577 3.2557 6.19614L9.0057 11.4461C9.16133 11.5882 9.25 11.7893 9.25 12C9.25 12.2107 9.16133 12.4118 9.0057 12.5539L3.2557 17.8039C3.03626 18.0042 2.71921 18.0561 2.44733 17.9362ZM7.38769 12L3.5 8.45038L3.5 15.5496L7.38769 12Z"/>
</svg>

<svg xmlns="http://www.w3.org/2000/svg" width="24" height="24" viewBox="0 0 24 24"><path fill-rule="evenodd" d="M12 10.75a.75.75 0 01.75.75v1a.75.75 0 01-1.5 0v-1a.75.75 0 01.75-.75zm0 4a.75.75 0 01.75.75v1a.75.75 0 01-1.5 0v-1a.75.75 0 01.75-.75zm0 4a.75.75 0 01.75.75v1a.75.75 0 01-1.5 0v-1a.75.75 0 01.75-.75zm0-12a.75.75 0 01.75.75v1a.75.75 0 01-1.5 0v-1a.75.75 0 01.75-.75zm0-4a.75.75 0 01.75.75v1a.75.75 0 01-1.5 0v-1a.75.75 0 01.75-.75zm9.553 3.314A.75.75 0 0122 6.75v10.5a.75.75 0 01-1.256.554l-5.75-5.25a.75.75 0 010-1.108l5.75-5.25a.75.75 0 01.809-.132zM16.613 12l3.887 3.55v-7.1L16.612 12zM2.447 17.936A.75.75 0 012 17.25V6.75a.75.75 0 011.256-.554l5.75 5.25a.75.75 0 010 1.108l-5.75 5.25a.75.75 0 01-.809.132zM7.387 12L3.5 8.45v7.1L7.388 12z"/></svg>
